images/social_media/black/facebook_1.svg

<svg width="30" height="30" viewBox="0 0 30 30" fill="none" xmlns="http://www.w3.org/2000/svg">
<path d="M14.9821 0C17.056 0 19.0048 0.393325 20.8284 1.17998C22.652 1.96663 24.2431 3.03933 25.6019 4.39809C26.9607 5.75685 28.0334 7.34207 28.82 9.15375C29.6067 10.9654 30 12.9082 30 14.9821C30 17.056 29.6067 19.0048 28.82 20.8284C28.0334 22.652 26.9607 24.2431 25.6019 25.6019C24.2431 26.9607 22.652 28.0334 20.8284 28.82C19.0048 29.6067 17.056 30 14.9821 30C12.9082 30 10.9654 29.6067 9.15375 28.82C7.34207 28.0334 5.75685 26.9607 4.39809 25.6019C3.03933 24.2431 1.96663 22.652 1.17998 20.8284C0.393325 19.0048 0 17.056 0 14.9821C0 12.9082 0.393325 10.9654 1.17998 9.15375C1.96663 7.34207 3.03933 5.75685 4.39809 4.39809C5.75685 3.03933 7.34207 1.96663 9.15375 1.17998C10.9654 0.393325 12.9082 0 14.9821 0ZM20.6317 6.5435H17.4493C16.8296 6.5435 16.2574 6.65077 15.733 6.86532C15.2086 7.07986 14.7497 7.36591 14.3564 7.72348C13.9631 8.08105 13.6591 8.48629 13.4446 8.93921C13.23 9.39213 13.1228 9.84505 13.1228 10.298V12.1931H10.298V15.9118H13.1228V23.4207H16.8772V15.9118H19.6663V12.1931H16.8772V11.2277C16.8772 10.9416 16.9905 10.7151 17.2169 10.5483C17.4434 10.3814 17.64 10.298 17.8069 10.298H20.6317V6.5435Z" fill="#252525"/>
</svg>

<svg width="30" height="30" fill="none" xmlns="http://www.w3.org/2000/svg"><path d="M14.982 0c2.074 0 4.023.393 5.846 1.18a15.184 15.184 0 0 1 4.774 3.218 15.239 15.239 0 0 1 3.218 4.756c.787 1.811 1.18 3.754 1.18 5.828 0 2.074-.393 4.023-1.18 5.846a15.182 15.182 0 0 1-3.218 4.774 15.182 15.182 0 0 1-4.774 3.218c-1.823.787-3.772 1.18-5.846 1.18-2.074 0-4.017-.393-5.828-1.18a15.239 15.239 0 0 1-4.756-3.218 15.184 15.184 0 0 1-3.218-4.774C.393 19.005 0 17.056 0 14.982c0-2.074.393-4.017 1.18-5.828a15.24 15.24 0 0 1 3.218-4.756A15.24 15.24 0 0 1 9.154 1.18C10.965.393 12.908 0 14.982 0Zm5.65 6.543h-3.183a4.49 4.49 0 0 0-1.716.322 4.65 4.65 0 0 0-1.377.858 3.88 3.88 0 0 0-.911 1.216 3.15 3.15 0 0 0-.322 1.359v1.895h-2.825v3.719h2.825v7.509h3.754v-7.51h2.79v-3.718h-2.79v-.965a.8.8 0 0 1 .34-.68c.226-.167.423-.25.59-.25h2.825V6.543Z" fill="#252525"/></svg>
